X: 10
T: Mum for that
R: reel
M: C
L: 1/16
Z: 2010 John Chambers <jc:trillian.mit.edu>
B: John Johnson ed. "Twenty Four Country Dances", p.77 London 1766
K: Gm
|: BGBG dDdD BGBG dDdD | Bgca ^fdgB Agd^f g2G2 :|
|: gbag ^f2d2 (g/a/b)ag ^f2d2 | Bgca ^fdgB Agd^f g2G2 :|
|: BDGD AD^FD GABc d2D2 | Bgca ^fdgB Agd^f g2G2 :|


%%sep 5 1 500

